X: 13059
T: Finnegan's
R: reel
M: 4/4
K: Amajor
F2cF ABc2|ABcf ecBA|F2cF ABc2|ecce fcBA|
F2cF ABc2|ABcf ecBA|f2ec ecBA|BAFE F4:|
|:ABcB- BAFA|c2cB- BAFA|ABcB- BAFA|f2fe- ecBA|
ABcB- BAFA|c2cB- BAFA|f2ec ecBA|BAFE F4:|

